X: 2
T: Dos Kelbl
N: aka "Donna Donna" or "Dona Dona"
N: transposition with own app, works although key is "wrong"
M: 4/4
L: 1/4
Q:
K: C
|: A D E/2F/2 G | A D E/2F/2 G | A D ^A A/2G/2 | F G A2 |
A D E/2F/2 G | A D E/2F/2 G | A D ^A A/2G/2 | F E D2 |
c c c2/3 ^A/2 | A/2G/2 F z2 | G/2 G G/2 c ^A | A3 z |
c c c2/3 ^A | A G F G | A G F E | D3 z |
E/2E/2E/2E/2 G G | F/2G/2 A3 | G/2G/2G/2G/2 c ^A | A3 z |
E/2E/2E/2E/2 G G | F/2G/2 A3 | A/2E/2F/2G/2 F E | D3 z :|

